X: 498
%
U:~=!turn!
T: Mrs. Stewart Fleming of Killichassie
C:
O:Scotland
B:Keith Norman MacDonald : "The Skye collection of the best reels & strathspeys extant" : 1887
Z:Ralph Palmer
R:Strathspey
M:C
L:1/8
K:Bb
F | D>B,(D>F) ~B2 (A>G) | F<B, (G/F/)(E/D/) (F<C)C>F | D>B,D>F ~B2 (A>G) | (A/B/c) F>A B<B,~B, ::
d | B<fd<f B<fd<f F<cA<c (F<c)(A<c) | B<fd<f B<fd<f | (b/a/)(g/f/) g>e d<B~B ::
F | (D<B,)F>B, G>B,F>B, | (D>B,) (G/F/)(E/D/) (E<C)C>F | (D>B,)F>B, G>B,F>A | B>A{/G}F>E D<B,B, ::
g | f<B (e/d/)(c/B/) f>Bb>B | f<B (e/d/)(c/B/) c<GG>g | f<B (e/d/)(c/B/) f>Bb>B | B>G{/G}F>E D<B,B, :|


